!!!COM: Ernest Chausson
!!!CNT: Francais
!!!TXO: Francais
!!!OTL: Printemps triste
!!!OPS: Op. 8
!!!ONM: No. 3
!!!LYR: Maurice Bouchor
!!!ENC: Jacob Pegg
!!!YOR: 20 Songs for Voice and Piano, International Music Company, New York City, January, 1952
!!!ODT: 1883/
!!NB: Vocal melody and text only encoded.
**kern	**silbe
*clef G2	*
*k[]	*
*M4/4	*
=5	=5
4r	.
{8a	{Nos
8a	sen-
8.g	-tiers
16g	ai-
4f#	-me/s
=6	=6
8fn	s'en
[8fn	vont
12fn]	|
12fn	re-
12fn	-fleu-
[4e	-rir
8e]}	|}
8r	.
=7	=7
8r	.
{4dd	{Et
8dd	mon
8.cc	coeur
16cc	bri-
4b	-se/
=8	=8
16cc#	ne
16cc#	peut
[8cc#	pas
8cc#]	|
8cc#	re-
4.ee-	-nai^-
[8dd	-tre.
=9	=9
8dd]}	|}
8r	.
4r	.
2r	.
=10	=10
2r	.
8r	.
16r	.
{16e-	{Aus-
8e-	-si
16e-	cha-
16e-	-que
=11	=11
16f	soir
16f	me
16f	voit
32f	a-
32b-	-cour-
[4b-	-rir
8b-]}	|}
{8b-	{Et
8bn	lon-
8cc#	-gue-
=12	=12
8cc#	-ment
8b-	pleu-
[4b-	-rer
8b-]	|
8f#	sous
8e	ta
8d	fe-
=13	=13
4c#	-ne^-
8c#}	-tre,}
8r	.
2r	.
=14	=14
*M9/8	*
8r	.
{8dd	{Ta
8dd	fe-
4cc#	-ne^-
8g	-tre
[4.g	vide
=15	=15
8g]	|
8f	ou\
8e-	ne
4d	bril-
8d	-le
4.d}	plus}
=16	=16
8r	.
{4dd	{Ta
8cc#	te^-
8g	-te
8g	char-
4.g	-mante
=17	=17
6f	et
6e-	ton
4d	doux
8b-	sou-
[4.b-	-ri-
=18	=18
6b-]	|
6b-}	-re;}
4r	.
8r	.
8r	.
{4dd	{Et
=19	=19
8d	com-
8d	-me
8e	je
8f	pense
8f	a\
8g	nos
4a-	jours
8g	per-
=20	=20
[4.f#	-dus
8f#]}	|}
8r	.
8r	.
4r	.
8r	.
=21	=21
4r	.
8r	.
{8d	{Je
8d	me
8d	la-
4f#	-men-
8d}	-te,}
=22	=22
4r	.
8r	.
{8d	{et
8d	je
8d	ne
4d	sais
8d	que
=23	=23
4.fn	di-
8A}	-re.}
8r	.
8r	.
4r	.
8r	.
=26	=26
*M4/4	*
4r	.
{8a	{Et
8a	tou-
8.g	-jours
16g	les
4f#	fleurs,
=27	=27
12r	.
12b	et
12b	tou-
8.b	-jours
16b	le
4b-}	ciel}
8r	.
{8e	{Et
=28	=28
12f	l'a^-
12f	-me
12g	des
8a	bois
16a	dans
16a	leur
16a-	ombre
16a-	e\-
[8a-	-pais-
16a-]	|
16a-}	-se}
{16a-	{Mur-
16a-	-mur-
=29	=29
16g	-ant
16g	en
[8g	choeur
16g]	|
16g	un
24g	chant
24g	e/-
24g	-ter-
4f#}	-nel}
{8f#	{Qui
16g	se-
16a	-re/-
=30	=30
16b-	-pand
16dd	dans
[8dd	l'air
16dd]	|
16g	char-
16g	-ge/
16g	d'i-
4fn	-vres-
8fn}	-se!}
8r	.
=31	=31
4r	.
8r	.
{16f#	{Et
16g	la
8.g	mer
16g	qui
8f#	rol-
16e	-eau
16e	so-
=32	=32
8g	-leil
8e-	le-
4e-	-vant,
12r	.
12b-	Em-
12b-	-port-
8a	-ant
8g	bien
=33	=33
4b-	loin
16cc	tou-
16cc	-tes
16cc	mes
16cc#	pens-
[2ee	-se/es
=34	=34
2ee_	|
8ee]}	|}
8r	.
4r	.
=38	=38
4r	.
{8a	{Qu'el-
8a	-les
8.g	ail-
16g	-lent
8.f#	donc
16f#	sur
=39	=39
4g#	l'ai-
8a	-le
8b	du
2b-	vent
=40	=40
8a	Jus-
16a	-ques
16a	a\
[2dd	toi
8dd]	|
16d	ces
16d	co-
=41	=41
[4d	-lom-
16d]	|
8e	-bes
16cc	bles-
[2cc	-se/es
=42	=42
2cc_	|
8cc]}	|}
8r	.
4r	.
*-	*-
